src/assets/images/icons/svg/iconw_bfg.svg

<?xml version="1.0" encoding="UTF-8" standalone="no"?>
<svg
   xmlns:dc="http://purl.org/dc/elements/1.1/"
   xmlns:cc="http://creativecommons.org/ns#"
   xmlns:rdf="http://www.w3.org/1999/02/22-rdf-syntax-ns#"
   xmlns:svg="http://www.w3.org/2000/svg"
   xmlns="http://www.w3.org/2000/svg"
   xmlns:xlink="http://www.w3.org/1999/xlink"
   id="svg8"
   version="1.1"
   viewBox="0 0 512 512"
   height="512"
   width="512">
  <defs
     id="defs2" />
  <metadata
     id="metadata5">
    <rdf:RDF>
      <cc:Work
         rdf:about="">
        <dc:format>image/svg+xml</dc:format>
        <dc:type
           rdf:resource="http://purl.org/dc/dcmitype/StillImage" />
        <dc:title></dc:title>
      </cc:Work>
    </rdf:RDF>
  </metadata>
  <g
     id="layer1">
    <circle
       cy="255"
       cx="255"
       id="path10"
       style="fill:none;fill-opacity:0;stroke:#015aff;stroke-width:30;stroke-miterlimit:4;stroke-dasharray:none;stroke-opacity:1;opacity:0.98899998"
       r="200" />
    <path
       d="M 154 79.330078 A -204 -204 0 0 0 52 256 L 178.03711 256 A 77.156928 78.834057 44.384012 0 1 217.36328 189.07812 L 154 79.330078 z "
       style="fill:#015aff;fill-opacity:1;stroke-width:10;stroke-miterlimit:4;stroke-dasharray:none"
       id="path870-3" />
    <path
       d="M 358 79.330078 L 295.36328 187.82031 A 77.156928 78.834057 44.384012 0 1 333.98242 254.32227 A 77.156928 78.834057 44.384012 0 1 333.96289 256 L 460 256 A 204 204 0 0 0 358 79.330078 z "
       style="fill:#015aff;fill-opacity:1;stroke-width:10;stroke-miterlimit:4;stroke-dasharray:none"
       id="path870-7" />
    <path
       d="M 294.63672 322.92188 A 77.156928 78.834057 44.384012 0 1 256 334 A 77.156928 78.834057 44.384012 0 1 216.63672 324.17969 L 154 432.66992 A 204 204 0 0 0 358 432.66992 L 294.63672 322.92188 z "
       style="fill:#015aff;fill-opacity:1;stroke-width:10;stroke-miterlimit:4;stroke-dasharray:none"
       id="path870" />
    <circle
       cy="256"
       cx="256"
       id="path837"
       style="fill:#015aff;fill-opacity:1;stroke:none;stroke-width:40;stroke-miterlimit:4;stroke-dasharray:none;stroke-opacity:1"
       r="48" />
    <use
       id="use924"
       xlink:href="#path870-3"
       y="0"
       x="0" />
  </g>
</svg>

<svg xmlns="http://www.w3.org/2000/svg" xmlns:xlink="http://www.w3.org/1999/xlink" viewBox="0 0 512 512"><circle cy="255" cx="255" r="200" fill="none" stroke="#015aff" stroke-width="30" opacity=".989"/><path d="M154 79.33A-204-204 0 0052 256h126.037a77.157 78.834 44.384 0139.326-66.922L154 79.33z" id="a" fill="#015aff" fill-opacity="1" stroke-width="10" stroke-miterlimit="4" stroke-dasharray="none"/><path d="M358 79.33l-62.637 108.49a77.157 78.834 44.384 0138.62 66.502 77.157 78.834 44.384 01-.02 1.678H460A204 204 0 00358 79.33zM294.637 322.922A77.157 78.834 44.384 01256 334a77.157 78.834 44.384 01-39.363-9.82L154 432.67a204 204 0 00204 0l-63.363-109.748z" fill="#015aff"/><circle cy="256" cx="256" r="48" fill="#015aff"/><use xlink:href="#a"/></svg>
